X: 28375
T: Muineira De Ourense
R: slide
M: 12/8
K: Dmajor
AAA|:AGF EFG|ABA BBB|BAA dAA|G2 F DFE|
DFF FED|B2 G DFE|DED CDE|F2 D DFE|
DFF FED|B2 G DFE|1 DED CDE|D2 D AAA:|2 DED CDE|D2 D BBB||
[K:Gmaj]
|:dBd dcB|c2 A AAA|cAc cBA|B2 G BBB|
BEF GAB|d2 c cdc|BcB ABA|1 G2 G BBB:|2 G2 G AAA||

